resources/svg/turbolinux.svg

<svg xmlns="http://www.w3.org/2000/svg" viewBox="0 0 24 24" fill="currentColor"><path fill="currentColor" fill-rule="evenodd" d="M9.41886316,6.22224 L9.96581053,7.45268211 L6.61541053,7.45268211 L6,6.22224 L9.41886316,6.22224 Z M13.1110105,12.1706526 L7.09383158,0 L14.1364421,4.17056842 L14.5465895,6.15397895 L17.8971158,6.15397895 L17.1449053,8.20509474 L14.9569895,8.20509474 L16.7346316,16.4785263 L12.5636842,14.4267789 L14.6833895,24 L8.18785263,10.8034105 L13.1110105,12.1706526 Z"/></svg>

<svg viewBox="0 0 24 24"><path fill="currentColor" fill-rule="evenodd" d="M9.419 6.222l.547 1.23h-3.35L6 6.223h3.419zm3.692 5.949L7.094 0l7.042 4.17l.41 1.984h3.351l-.752 2.051h-2.188l1.778 8.274l-4.171-2.052L14.684 24L8.187 10.803l4.923 1.368z"/></svg>
